assets/images/docker_wave_whale.svg

<svg height="150" viewBox="0 0 842 150" width="842" xmlns="http://www.w3.org/2000/svg"><g fill="none" fill-rule="evenodd"><g fill="#28b8eb" transform="translate(15 72)"><path d="m564.773 20.978h-135.327-16.736-135.323c6.257-2.783 19.798-6.543 17.565-20.927 11.379 23.092 38.818 16.202 45.744 4.816 7.712 19.614 52.606 12.158 55.737-3.123 9.666 19.897 39.624 19.897 49.293 0 3.132 15.281 48.026 22.737 55.738 3.123 6.926 11.386 34.363 18.276 45.743-4.816-2.234 14.384 11.308 18.144 17.566 20.927"/><path d="m287.029 20.978h-135.327-16.736-135.323c6.257-2.783 19.798-6.543 17.565-20.927 11.379 23.092 38.818 16.202 45.744 4.816 7.712 19.614 52.606 12.158 55.737-3.123 9.666 19.897 39.624 19.897 49.293 0 3.132 15.281 48.026 22.737 55.738 3.123 6.926 11.386 34.363 18.276 45.743-4.816-2.234 14.384 11.308 18.144 17.566 20.927"/><path d="m827.067 20.978h-135.327-16.736-135.323c6.257-2.783 19.798-6.543 17.565-20.927 11.379 23.092 38.818 16.202 45.744 4.816 7.712 19.614 52.606 12.158 55.737-3.123 9.666 19.897 39.624 19.897 49.293 0 3.132 15.281 48.026 22.737 55.738 3.123 6.926 11.386 34.363 18.276 45.743-4.816-2.234 14.384 11.308 18.144 17.566 20.927"/></g><g transform="translate(286 1)"><path d="m152.064 46.599h23.523v24.046h11.894c5.493 0 11.142-.978 16.344-2.741 2.555-.866 5.424-2.072 7.945-3.589-3.32-4.336-5.015-9.809-5.515-15.205-.677-7.34.803-16.893 5.771-22.637l2.472-2.86 2.947 2.368c7.418 5.96 13.657 14.289 14.757 23.783 8.933-2.627 19.42-2.006 27.294 2.538l3.23 1.864-1.7 3.319c-6.659 12.996-20.58 17.021-34.19 16.309-20.366 50.725-64.705 74.741-118.467 74.741-27.775 0-53.258-10.384-67.769-35.026l-.237-.403-2.115-4.301c-4.905-10.847-6.534-22.73-5.429-34.603l.332-3.557h20.115v-24.046h23.522v-23.523h47.047v-23.524h28.229z" fill="#3a4e55"/><path d="m228.275 55.495c1.577-12.258-7.596-21.886-13.285-26.457-6.556 7.58-7.575 27.444 2.711 35.807-5.74 5.099-17.835 9.721-30.22 9.721h-150.757c-1.204 12.928 1.065 24.832 6.249 35.023l1.715 3.136c1.086 1.843 2.272 3.622 3.554 5.334h.001c6.197.399 11.912.536 17.14.421h.003c10.273-.228 18.656-1.44 25.01-3.642.946-.329 1.977.173 2.304 1.118.326.945-.174 1.977-1.119 2.304-.844.293-1.725.567-2.635.826-.001.001-.002.001-.003.001-5.003 1.428-10.367 2.39-17.289 2.817.411.006-.428.062-.43.062-.235.014-.532.048-.768.061-2.724.153-5.664.185-8.67.185-3.287 0-6.526-.062-10.146-.246l-.092.061c12.561 14.118 32.202 22.586 56.82 22.586 52.105 0 96.3-23.096 115.87-74.951 13.884 1.424 27.228-2.116 33.298-13.964-9.668-5.58-22.102-3.801-29.261-.203" fill="#00aada"/><path d="m228.275 55.495c1.577-12.258-7.596-21.886-13.285-26.457-6.556 7.58-7.575 27.444 2.711 35.807-5.74 5.099-17.835 9.721-30.22 9.721h-141.83c-.615 19.798 6.732 34.828 19.732 43.914h.003c10.273-.228 18.656-1.44 25.01-3.642.946-.329 1.977.173 2.304 1.118.326.945-.174 1.977-1.119 2.304-.844.293-1.725.567-2.635.826-.001.001-.002.001-.003.001-5.003 1.428-10.828 2.513-17.749 2.94-.002 0-.168-.16-.17-.16 17.732 9.096 43.444 9.064 72.922-2.26 33.055-12.697 63.811-36.89 85.273-64.56-.324.146-.639.295-.944.448" fill="#27b9ec"/><path d="m37.006 90.273c.937 6.925 2.962 13.409 5.967 19.316l1.715 3.137c1.086 1.842 2.272 3.621 3.555 5.333 6.199.399 11.914.536 17.143.421 10.273-.228 18.656-1.44 25.01-3.642.946-.328 1.977.173 2.304 1.118s-.174 1.977-1.119 2.304c-.844.293-1.725.567-2.635.826-.001.001-.002.001-.003.001-5.003 1.428-10.797 2.452-17.719 2.879-.237.014-.652.017-.891.031-2.723.153-5.633.246-8.64.246-3.286 0-6.648-.063-10.267-.246 12.561 14.118 32.324 22.616 56.942 22.616 44.607 0 83.415-16.931 105.939-54.34z" fill="#088cb9"/><path d="m47.008 90.273c2.667 12.16 9.075 21.705 18.378 28.207 10.273-.228 18.656-1.44 25.01-3.642.946-.328 1.977.173 2.304 1.118s-.174 1.977-1.119 2.304c-.844.293-1.725.567-2.635.826-.001.001-.002.001-.003.001-5.003 1.428-10.92 2.452-17.841 2.879 17.73 9.095 43.368 8.964 72.844-2.358 17.833-6.852 34.995-17.051 50.392-29.335z" fill="#039cc7"/><path d="m74.265 52.218h1.61v16.99h-1.61zm-3.089 0h1.673v16.99h-1.673zm-3.089 0h1.673v16.99h-1.673zm-3.09 0h1.674v16.99h-1.674zm-3.088 0h1.673v16.99h-1.673zm-3.025 0h1.609v16.99h-1.609zm-1.698-1.699h20.386v20.388h-20.386z" fill="#00acd3"/><path d="m97.788 28.695h1.611v16.989h-1.611zm-3.088 0h1.673v16.989h-1.673zm-3.09 0h1.673v16.989h-1.673zm-3.089 0h1.673v16.989h-1.673zm-3.088 0h1.672v16.989h-1.672zm-3.025 0h1.608v16.989h-1.608zm-1.7-1.699h20.389v20.387h-20.389z" fill="#00acd3"/><path d="m97.788 52.218h1.611v16.99h-1.611zm-3.088 0h1.673v16.99h-1.673zm-3.09 0h1.673v16.99h-1.673zm-3.089 0h1.673v16.99h-1.673zm-3.088 0h1.672v16.99h-1.672zm-3.025 0h1.608v16.99h-1.608zm-1.7-1.699h20.389v20.388h-20.389z" fill="#26c2ee"/><path d="m121.312 52.218h1.609v16.99h-1.609zm-3.089 0h1.674v16.99h-1.674zm-3.089 0h1.674v16.99h-1.674zm-3.089 0h1.673v16.99h-1.673zm-3.089 0h1.673v16.99h-1.673zm-3.025 0h1.608v16.99h-1.608zm-1.699-1.699h20.388v20.388h-20.388z" fill="#00acd3"/><path d="m121.312 28.695h1.609v16.989h-1.609zm-3.089 0h1.674v16.989h-1.674zm-3.089 0h1.674v16.989h-1.674zm-3.089 0h1.673v16.989h-1.673zm-3.089 0h1.673v16.989h-1.673zm-3.025 0h1.608v16.989h-1.608zm-1.699-1.699h20.388v20.387h-20.388z" fill="#26c2ee"/><path d="m144.836 52.218h1.61v16.99h-1.61zm-3.089 0h1.673v16.99h-1.673zm-3.089 0h1.673v16.99h-1.673zm-3.09 0h1.673v16.99h-1.673zm-3.088 0h1.673v16.99h-1.673zm-3.025 0h1.609v16.99h-1.609zm-1.699-1.699h20.388v20.388h-20.388z" fill="#26c2ee"/><path d="m144.836 28.695h1.61v16.989h-1.61zm-3.089 0h1.673v16.989h-1.673zm-3.089 0h1.673v16.989h-1.673zm-3.09 0h1.673v16.989h-1.673zm-3.088 0h1.673v16.989h-1.673zm-3.025 0h1.609v16.989h-1.609zm-1.699-1.699h20.388v20.387h-20.388z" fill="#00acd3"/><path d="m144.836 5.171h1.61v16.99h-1.61zm-3.089 0h1.673v16.99h-1.673zm-3.089 0h1.673v16.99h-1.673zm-3.09 0h1.673v16.99h-1.673zm-3.088 0h1.673v16.99h-1.673zm-3.025 0h1.609v16.99h-1.609zm-1.699-1.698h20.388v20.387h-20.388z" fill="#26c2ee"/><path d="m168.359 52.218h1.609v16.99h-1.609zm-3.088 0h1.672v16.99h-1.672zm-3.091 0h1.673v16.99h-1.673zm-3.088 0h1.673v16.99h-1.673zm-3.09 0h1.673v16.99h-1.673zm-3.025 0h1.61v16.99h-1.61zm-1.698-1.699h20.388v20.388h-20.388z" fill="#00acd3"/><path d="m99.821 103.961c3.105 0 5.624 2.52 5.624 5.625s-2.519 5.623-5.624 5.623c-3.107 0-5.625-2.518-5.625-5.623s2.518-5.625 5.625-5.625" fill="#d5eef2"/><path d="m99.821 105.557c.514 0 1.005.097 1.458.272-.491.284-.823.816-.823 1.424 0 .908.736 1.643 1.644 1.643.622 0 1.162-.346 1.442-.855.197.475.306.997.306 1.545 0 2.224-1.803 4.028-4.027 4.028-2.225 0-4.029-1.804-4.029-4.028 0-2.226 1.804-4.029 4.029-4.029" fill="#3a4e55"/><path d="m.337 92.306h123.201 15.238 123.198c-5.697-1.445-18.025-3.397-15.992-10.863-10.358 11.986-35.34 8.41-41.644 2.498-7.021 10.184-47.893 6.313-50.743-1.62-8.802 10.329-36.075 10.329-44.878 0-2.852 7.933-43.722 11.804-50.744 1.62-6.305 5.912-31.284 9.488-41.643-2.498 2.033 7.466-10.295 9.418-15.993 10.863" fill="#3a4e55"/><path d="m114.771 144.492c-13.929-6.61-21.574-15.595-25.828-25.405-5.174 1.478-11.393 2.421-18.62 2.827-2.722.153-5.585.231-8.591.231-3.464 0-7.115-.102-10.947-.306 12.773 12.766 28.487 22.595 57.583 22.774 2.148 0 4.281-.042 6.403-.121" fill="#c0dbe1"/><path d="m94.117 128.138c-1.927-2.616-3.797-5.903-5.171-9.052-5.174 1.477-11.395 2.422-18.623 2.827 4.965 2.696 12.065 5.192 23.794 6.225" fill="#d5eef2"/></g><g fill="#394e54" transform="translate(0 81)"><path d="m287.386 12.311h-135.327-16.736-135.323c6.257-1.587 19.798-3.731 17.565-11.933 11.379 13.167 38.818 9.239 45.744 2.745 7.712 11.185 52.606 6.933 55.737-1.78 9.666 11.346 39.624 11.346 49.293 0 3.132 8.713 48.026 12.965 55.738 1.78 6.926 6.494 34.363 10.422 45.743-2.745-2.234 8.202 11.308 10.346 17.566 11.933"/><path d="m831.425 12.311h-135.327-16.736-135.323c6.257-1.587 19.798-3.731 17.565-11.933 11.379 13.167 38.818 9.239 45.744 2.745 7.712 11.185 52.606 6.933 55.737-1.78 9.666 11.346 39.624 11.346 49.293 0 3.132 8.713 48.026 12.965 55.738 1.78 6.926 6.494 34.363 10.422 45.743-2.745-2.234 8.202 11.308 10.346 17.566 11.933"/></g></g></svg>

<?xml version="1.0" encoding="UTF-8" standalone="no"?>
<svg width="842px" height="150px" viewBox="0 0 842 150" version="1.1" xmlns="http://www.w3.org/2000/svg" xmlns:xlink="http://www.w3.org/1999/xlink" xmlns:sketch="http://www.bohemiancoding.com/sketch/ns">
    <title>docker_wave_whale</title>
    <description>Created with Sketch (https://www.bohemiancoding.com/sketch)</description>
    <defs></defs>
    <g id="Page-1" stroke="none" stroke-width="1" fill="none" fill-rule="evenodd" sketch:type="MSPage">
        <g id="docker_whale" sketch:type="MSLayerGroup" transform="translate(0.000000, 1.000000)">
            <g id="Group" transform="translate(15.000000, 71.000000)" fill="#28B8EB" sketch:type="MSShapeGroup">
                <path d="M564.773,20.978 L429.446,20.978 L412.71,20.978 L277.387,20.978 C283.644,18.195 297.185,14.435 294.952,0.051 C306.331,23.143 333.77,16.253 340.696,4.867 C348.408,24.481 393.302,17.025 396.433,1.744 C406.099,21.641 436.057,21.641 445.726,1.744 C448.858,17.025 493.752,24.481 501.464,4.867 C508.39,16.253 535.827,23.143 547.207,0.051 C544.973,14.435 558.515,18.195 564.773,20.978" id="Shape"></path>
                <path d="M287.029,20.978 L151.702,20.978 L134.966,20.978 L-0.357,20.978 C5.9,18.195 19.441,14.435 17.208,0.051 C28.587,23.143 56.026,16.253 62.952,4.867 C70.664,24.481 115.558,17.025 118.689,1.744 C128.355,21.641 158.313,21.641 167.982,1.744 C171.114,17.025 216.008,24.481 223.72,4.867 C230.646,16.253 258.083,23.143 269.463,0.051 C267.229,14.435 280.771,18.195 287.029,20.978" id="Shape"></path>
                <path d="M827.067,20.978 L691.74,20.978 L675.004,20.978 L539.681,20.978 C545.938,18.195 559.479,14.435 557.246,0.051 C568.625,23.143 596.064,16.253 602.99,4.867 C610.702,24.481 655.596,17.025 658.727,1.744 C668.393,21.641 698.351,21.641 708.02,1.744 C711.152,17.025 756.046,24.481 763.758,4.867 C770.684,16.253 798.121,23.143 809.501,0.051 C807.267,14.435 820.809,18.195 827.067,20.978" id="Shape"></path>
            </g>
            <g id="Group" transform="translate(286.000000, 0.000000)" sketch:type="MSShapeGroup">
                <path d="M152.064,46.599 L175.587,46.599 L175.587,70.645 L187.481,70.645 C192.974,70.645 198.623,69.667 203.825,67.904 C206.38,67.038 209.249,65.832 211.77,64.315 C208.45,59.979 206.755,54.506 206.255,49.11 C205.578,41.77 207.058,32.217 212.026,26.473 L214.498,23.613 L217.445,25.981 C224.863,31.941 231.102,40.27 232.202,49.764 C241.135,47.137 251.622,47.758 259.496,52.302 L262.726,54.166 L261.026,57.485 C254.367,70.481 240.446,74.506 226.836,73.794 C206.47,124.519 162.131,148.535 108.369,148.535 C80.594,148.535 55.111,138.151 40.6,113.509 L40.363,113.106 L38.248,108.805 C33.343,97.958 31.714,86.075 32.819,74.202 L33.151,70.645 L53.266,70.645 L53.266,46.599 L76.788,46.599 L76.788,23.076 L123.835,23.076 L123.835,-0.448 L152.064,-0.448 L152.064,46.599 L152.064,46.599 Z" id="Shape" fill="#3A4E55"></path>
                <path d="M228.275,55.495 C229.852,43.237 220.679,33.609 214.99,29.038 C208.434,36.618 207.415,56.482 217.701,64.845 C211.961,69.944 199.866,74.566 187.481,74.566 L36.724,74.566 C35.52,87.494 37.789,99.398 42.973,109.589 L44.688,112.725 C45.774,114.568 46.96,116.347 48.242,118.059 L48.243,118.059 C54.44,118.458 60.155,118.595 65.383,118.48 L65.386,118.48 C75.659,118.252 84.042,117.04 90.396,114.838 C91.342,114.509 92.373,115.011 92.7,115.956 C93.026,116.901 92.526,117.933 91.581,118.26 C90.737,118.553 89.856,118.827 88.946,119.086 C88.945,119.087 88.944,119.087 88.943,119.087 C83.94,120.515 78.576,121.477 71.654,121.904 C72.065,121.91 71.226,121.966 71.224,121.966 C70.989,121.98 70.692,122.014 70.456,122.027 C67.732,122.18 64.792,122.212 61.786,122.212 C58.499,122.212 55.26,122.15 51.64,121.966 L51.548,122.027 C64.109,136.145 83.75,144.613 108.368,144.613 C160.473,144.613 204.668,121.517 224.238,69.662 C238.122,71.086 251.466,67.546 257.536,55.698 C247.868,50.118 235.434,51.897 228.275,55.495" id="Shape" fill="#00AADA"></path>
                <path d="M228.275,55.495 C229.852,43.237 220.679,33.609 214.99,29.038 C208.434,36.618 207.415,56.482 217.701,64.845 C211.961,69.944 199.866,74.566 187.481,74.566 L45.651,74.566 C45.036,94.364 52.383,109.394 65.383,118.48 L65.386,118.48 C75.659,118.252 84.042,117.04 90.396,114.838 C91.342,114.509 92.373,115.011 92.7,115.956 C93.026,116.901 92.526,117.933 91.581,118.26 C90.737,118.553 89.856,118.827 88.946,119.086 C88.945,119.087 88.944,119.087 88.943,119.087 C83.94,120.515 78.115,121.6 71.194,122.027 C71.192,122.027 71.026,121.867 71.024,121.867 C88.756,130.963 114.468,130.931 143.946,119.607 C177.001,106.91 207.757,82.717 229.219,55.047 C228.895,55.193 228.58,55.342 228.275,55.495" id="Shape" fill="#27B9EC"></path>
                <path d="M37.006,90.273 C37.943,97.198 39.968,103.682 42.973,109.589 L44.688,112.726 C45.774,114.568 46.96,116.347 48.243,118.059 C54.442,118.458 60.157,118.595 65.386,118.48 C75.659,118.252 84.042,117.04 90.396,114.838 C91.342,114.51 92.373,115.011 92.7,115.956 C93.027,116.901 92.526,117.933 91.581,118.26 C90.737,118.553 89.856,118.827 88.946,119.086 C88.945,119.087 88.944,119.087 88.943,119.087 C83.94,120.515 78.146,121.539 71.224,121.966 C70.987,121.98 70.572,121.983 70.333,121.997 C67.61,122.15 64.7,122.243 61.693,122.243 C58.407,122.243 55.045,122.18 51.426,121.997 C63.987,136.115 83.75,144.613 108.368,144.613 C152.975,144.613 191.783,127.682 214.307,90.273 L37.006,90.273 L37.006,90.273 Z" id="Shape" fill="#088CB9"></path>
                <path d="M47.008,90.273 C49.675,102.433 56.083,111.978 65.386,118.48 C75.659,118.252 84.042,117.04 90.396,114.838 C91.342,114.51 92.373,115.011 92.7,115.956 C93.027,116.901 92.526,117.933 91.581,118.26 C90.737,118.553 89.856,118.827 88.946,119.086 C88.945,119.087 88.944,119.087 88.943,119.087 C83.94,120.515 78.023,121.539 71.102,121.966 C88.832,131.061 114.47,130.93 143.946,119.608 C161.779,112.756 178.941,102.557 194.338,90.273 L47.008,90.273 L47.008,90.273 Z" id="Shape" fill="#039CC7"></path>
                <path d="M74.265,52.218 L75.875,52.218 L75.875,69.208 L74.265,69.208 L74.265,52.218 L74.265,52.218 Z M71.176,52.218 L72.849,52.218 L72.849,69.208 L71.176,69.208 L71.176,52.218 L71.176,52.218 Z M68.087,52.218 L69.76,52.218 L69.76,69.208 L68.087,69.208 L68.087,52.218 L68.087,52.218 Z M64.997,52.218 L66.671,52.218 L66.671,69.208 L64.997,69.208 L64.997,52.218 L64.997,52.218 Z M61.909,52.218 L63.582,52.218 L63.582,69.208 L61.909,69.208 L61.909,52.218 L61.909,52.218 Z M58.884,52.218 L60.493,52.218 L60.493,69.208 L58.884,69.208 L58.884,52.218 L58.884,52.218 Z M57.186,50.519 L77.572,50.519 L77.572,70.907 L57.186,70.907 L57.186,50.519 L57.186,50.519 Z" id="Shape" fill="#00ACD3"></path>
                <path d="M97.788,28.695 L99.399,28.695 L99.399,45.684 L97.788,45.684 L97.788,28.695 L97.788,28.695 Z M94.7,28.695 L96.373,28.695 L96.373,45.684 L94.7,45.684 L94.7,28.695 L94.7,28.695 Z M91.61,28.695 L93.283,28.695 L93.283,45.684 L91.61,45.684 L91.61,28.695 L91.61,28.695 Z M88.521,28.695 L90.194,28.695 L90.194,45.684 L88.521,45.684 L88.521,28.695 L88.521,28.695 Z M85.433,28.695 L87.105,28.695 L87.105,45.684 L85.433,45.684 L85.433,28.695 L85.433,28.695 Z M82.408,28.695 L84.016,28.695 L84.016,45.684 L82.408,45.684 L82.408,28.695 L82.408,28.695 Z M80.708,26.996 L101.097,26.996 L101.097,47.383 L80.708,47.383 L80.708,26.996 L80.708,26.996 Z" id="Shape" fill="#00ACD3"></path>
                <path d="M97.788,52.218 L99.399,52.218 L99.399,69.208 L97.788,69.208 L97.788,52.218 L97.788,52.218 Z M94.7,52.218 L96.373,52.218 L96.373,69.208 L94.7,69.208 L94.7,52.218 L94.7,52.218 Z M91.61,52.218 L93.283,52.218 L93.283,69.208 L91.61,69.208 L91.61,52.218 L91.61,52.218 Z M88.521,52.218 L90.194,52.218 L90.194,69.208 L88.521,69.208 L88.521,52.218 L88.521,52.218 Z M85.433,52.218 L87.105,52.218 L87.105,69.208 L85.433,69.208 L85.433,52.218 L85.433,52.218 Z M82.408,52.218 L84.016,52.218 L84.016,69.208 L82.408,69.208 L82.408,52.218 L82.408,52.218 Z M80.708,50.519 L101.097,50.519 L101.097,70.907 L80.708,70.907 L80.708,50.519 L80.708,50.519 Z" id="Shape" fill="#26C2EE"></path>
                <path d="M121.312,52.218 L122.921,52.218 L122.921,69.208 L121.312,69.208 L121.312,52.218 L121.312,52.218 Z M118.223,52.218 L119.897,52.218 L119.897,69.208 L118.223,69.208 L118.223,52.218 L118.223,52.218 Z M115.134,52.218 L116.808,52.218 L116.808,69.208 L115.134,69.208 L115.134,52.218 L115.134,52.218 Z M112.045,52.218 L113.718,52.218 L113.718,69.208 L112.045,69.208 L112.045,52.218 L112.045,52.218 Z M108.956,52.218 L110.629,52.218 L110.629,69.208 L108.956,69.208 L108.956,52.218 L108.956,52.218 Z M105.931,52.218 L107.539,52.218 L107.539,69.208 L105.931,69.208 L105.931,52.218 L105.931,52.218 Z M104.232,50.519 L124.62,50.519 L124.62,70.907 L104.232,70.907 L104.232,50.519 L104.232,50.519 Z" id="Shape" fill="#00ACD3"></path>
                <path d="M121.312,28.695 L122.921,28.695 L122.921,45.684 L121.312,45.684 L121.312,28.695 L121.312,28.695 Z M118.223,28.695 L119.897,28.695 L119.897,45.684 L118.223,45.684 L118.223,28.695 L118.223,28.695 Z M115.134,28.695 L116.808,28.695 L116.808,45.684 L115.134,45.684 L115.134,28.695 L115.134,28.695 Z M112.045,28.695 L113.718,28.695 L113.718,45.684 L112.045,45.684 L112.045,28.695 L112.045,28.695 Z M108.956,28.695 L110.629,28.695 L110.629,45.684 L108.956,45.684 L108.956,28.695 L108.956,28.695 Z M105.931,28.695 L107.539,28.695 L107.539,45.684 L105.931,45.684 L105.931,28.695 L105.931,28.695 Z M104.232,26.996 L124.62,26.996 L124.62,47.383 L104.232,47.383 L104.232,26.996 L104.232,26.996 Z" id="Shape" fill="#26C2EE"></path>
                <path d="M144.836,52.218 L146.446,52.218 L146.446,69.208 L144.836,69.208 L144.836,52.218 L144.836,52.218 Z M141.747,52.218 L143.42,52.218 L143.42,69.208 L141.747,69.208 L141.747,52.218 L141.747,52.218 Z M138.658,52.218 L140.331,52.218 L140.331,69.208 L138.658,69.208 L138.658,52.218 L138.658,52.218 Z M135.568,52.218 L137.241,52.218 L137.241,69.208 L135.568,69.208 L135.568,52.218 L135.568,52.218 Z M132.48,52.218 L134.153,52.218 L134.153,69.208 L132.48,69.208 L132.48,52.218 L132.48,52.218 Z M129.455,52.218 L131.064,52.218 L131.064,69.208 L129.455,69.208 L129.455,52.218 L129.455,52.218 Z M127.756,50.519 L148.144,50.519 L148.144,70.907 L127.756,70.907 L127.756,50.519 L127.756,50.519 Z" id="Shape" fill="#26C2EE"></path>
                <path d="M144.836,28.695 L146.446,28.695 L146.446,45.684 L144.836,45.684 L144.836,28.695 L144.836,28.695 Z M141.747,28.695 L143.42,28.695 L143.42,45.684 L141.747,45.684 L141.747,28.695 L141.747,28.695 Z M138.658,28.695 L140.331,28.695 L140.331,45.684 L138.658,45.684 L138.658,28.695 L138.658,28.695 Z M135.568,28.695 L137.241,28.695 L137.241,45.684 L135.568,45.684 L135.568,28.695 L135.568,28.695 Z M132.48,28.695 L134.153,28.695 L134.153,45.684 L132.48,45.684 L132.48,28.695 L132.48,28.695 Z M129.455,28.695 L131.064,28.695 L131.064,45.684 L129.455,45.684 L129.455,28.695 L129.455,28.695 Z M127.756,26.996 L148.144,26.996 L148.144,47.383 L127.756,47.383 L127.756,26.996 L127.756,26.996 Z" id="Shape" fill="#00ACD3"></path>
                <path d="M144.836,5.171 L146.446,5.171 L146.446,22.161 L144.836,22.161 L144.836,5.171 L144.836,5.171 Z M141.747,5.171 L143.42,5.171 L143.42,22.161 L141.747,22.161 L141.747,5.171 L141.747,5.171 Z M138.658,5.171 L140.331,5.171 L140.331,22.161 L138.658,22.161 L138.658,5.171 L138.658,5.171 Z M135.568,5.171 L137.241,5.171 L137.241,22.161 L135.568,22.161 L135.568,5.171 L135.568,5.171 Z M132.48,5.171 L134.153,5.171 L134.153,22.161 L132.48,22.161 L132.48,5.171 L132.48,5.171 Z M129.455,5.171 L131.064,5.171 L131.064,22.161 L129.455,22.161 L129.455,5.171 L129.455,5.171 Z M127.756,3.473 L148.144,3.473 L148.144,23.86 L127.756,23.86 L127.756,3.473 L127.756,3.473 Z" id="Shape" fill="#26C2EE"></path>
                <path d="M168.359,52.218 L169.968,52.218 L169.968,69.208 L168.359,69.208 L168.359,52.218 L168.359,52.218 Z M165.271,52.218 L166.943,52.218 L166.943,69.208 L165.271,69.208 L165.271,52.218 L165.271,52.218 Z M162.18,52.218 L163.853,52.218 L163.853,69.208 L162.18,69.208 L162.18,52.218 L162.18,52.218 Z M159.092,52.218 L160.765,52.218 L160.765,69.208 L159.092,69.208 L159.092,52.218 L159.092,52.218 Z M156.002,52.218 L157.675,52.218 L157.675,69.208 L156.002,69.208 L156.002,52.218 L156.002,52.218 Z M152.977,52.218 L154.587,52.218 L154.587,69.208 L152.977,69.208 L152.977,52.218 L152.977,52.218 Z M151.279,50.519 L171.667,50.519 L171.667,70.907 L151.279,70.907 L151.279,50.519 L151.279,50.519 Z" id="Shape" fill="#00ACD3"></path>
                <path d="M99.821,103.961 C102.926,103.961 105.445,106.481 105.445,109.586 C105.445,112.691 102.926,115.209 99.821,115.209 C96.714,115.209 94.196,112.691 94.196,109.586 C94.196,106.481 96.714,103.961 99.821,103.961" id="Shape" fill="#D5EEF2"></path>
                <path d="M99.821,105.557 C100.335,105.557 100.826,105.654 101.279,105.829 C100.788,106.113 100.456,106.645 100.456,107.253 C100.456,108.161 101.192,108.896 102.1,108.896 C102.722,108.896 103.262,108.55 103.542,108.041 C103.739,108.516 103.848,109.038 103.848,109.586 C103.848,111.81 102.045,113.614 99.821,113.614 C97.596,113.614 95.792,111.81 95.792,109.586 C95.792,107.36 97.596,105.557 99.821,105.557" id="Shape" fill="#3A4E55"></path>
                <path d="M0.337,92.306 L123.538,92.306 L138.776,92.306 L261.974,92.306 C256.277,90.861 243.949,88.909 245.982,81.443 C235.624,93.429 210.642,89.853 204.338,83.941 C197.317,94.125 156.445,90.254 153.595,82.321 C144.793,92.65 117.52,92.65 108.717,82.321 C105.865,90.254 64.995,94.125 57.973,83.941 C51.668,89.853 26.689,93.429 16.33,81.443 C18.363,88.909 6.035,90.861 0.337,92.306" id="Shape" fill="#3A4E55"></path>
                <path d="M114.771,144.492 C100.842,137.882 93.197,128.897 88.943,119.087 C83.769,120.565 77.55,121.508 70.323,121.914 C67.601,122.067 64.738,122.145 61.732,122.145 C58.268,122.145 54.617,122.043 50.785,121.839 C63.558,134.605 79.272,144.434 108.368,144.613 C110.516,144.613 112.649,144.571 114.771,144.492" id="Shape" fill="#C0DBE1"></path>
                <path d="M94.117,128.138 C92.19,125.522 90.32,122.235 88.946,119.086 C83.772,120.563 77.551,121.508 70.323,121.913 C75.288,124.609 82.388,127.105 94.117,128.138" id="Shape" fill="#D5EEF2"></path>
            </g>
            <g id="Group" transform="translate(0.000000, 80.000000)" fill="#394E54" sketch:type="MSShapeGroup">
                <path d="M287.386,12.311 L152.059,12.311 L135.323,12.311 L0,12.311 C6.257,10.724 19.798,8.58 17.565,0.378 C28.944,13.545 56.383,9.617 63.309,3.123 C71.021,14.308 115.915,10.056 119.046,1.343 C128.712,12.689 158.67,12.689 168.339,1.343 C171.471,10.056 216.365,14.308 224.077,3.123 C231.003,9.617 258.44,13.545 269.82,0.378 C267.586,8.58 281.128,10.724 287.386,12.311" id="Shape"></path>
                <path d="M831.425,12.311 L696.098,12.311 L679.362,12.311 L544.039,12.311 C550.296,10.724 563.837,8.58 561.604,0.378 C572.983,13.545 600.422,9.617 607.348,3.123 C615.06,14.308 659.954,10.056 663.085,1.343 C672.751,12.689 702.709,12.689 712.378,1.343 C715.51,10.056 760.404,14.308 768.116,3.123 C775.042,9.617 802.479,13.545 813.859,0.378 C811.625,8.58 825.167,10.724 831.425,12.311" id="Shape"></path>
            </g>
        </g>
    </g>
</svg>
